X:29
M:12/8
L:1/8
K:D
E2A ABA G2A Bcd | e2d BcB A3 A2 :| 
f | e3 efe d3 dcd | e2d B2A G3 E2D | 
E2A ABA G2A Bcd | e2d BcB A3 A2 :|| 

